icon-svg/bulb-sultan-off.svg

<svg xmlns="http://www.w3.org/2000/svg" fill="#44739e" viewBox="0 0 24 24"><path d="m11.5 8.99 3.71 3.71c.17-1.18.46-2.61.94-4.11-1.34.3-3.01.41-4.15.41-.15 0-.33-.01-.5-.01m.5-.74c2.03 0 3.54-.25 4.48-.52.35-.69 1.39-2.62.25-3.68C15.5 2.93 12.21 3 12 3s-3.5-.07-4.73 1.05c-.13.12-.23.26-.31.41l3.76 3.75c.4.02.82.04 1.28.04m-2.25 8.89.38 2.33c.02.16.1.32.22.43l.35.32c.02.02.05.04.07.07l.37.44c.14.17.36.27.59.27h.55c.23 0 .45-.1.59-.27l.37-.44c.02-.02.04-.05.07-.07l.35-.32c.13-.11.21-.27.23-.43l.38-2.33c-.78.08-1.64.11-2.25.11-.63 0-1.49-.03-2.27-.11m12.23 3.8L2.86 1.87 1.45 3.28l6.82 6.8c.64 2.54.77 4.69.74 5.38-.01.2.05.38.18.52l.33.38c.71.09 1.54.14 2.48.14s1.77-.05 2.48-.14l.03-.04 6.05 6.04z"/></svg>

<svg viewBox="0 0 24 24" height="24px" width="24px" fill="#44739e" xmlns="http://www.w3.org/2000/svg"><title>hue:bulb-sultan-off</title><path d="M11.5,8.99l3.71,3.71c0.17-1.18,0.46-2.61,0.94-4.11C14.81,8.89,13.14,9,12,9C11.85,9,11.67,8.99,11.5,8.99z M12,8.25c2.03,0,3.54-0.25,4.48-0.52c0.35-0.69,1.39-2.62,0.25-3.68C15.5,2.93,12.21,3,12,3 S8.5,2.93,7.27,4.05C7.14,4.17,7.04,4.31,6.96,4.46l3.76,3.75C11.12,8.23,11.54,8.25,12,8.25z M9.75,17.14l0.38,2.33c0.02,0.16,0.1,0.32,0.22,0.43l0.35,0.32c0.02,0.02,0.05,0.04,0.07,0.07l0.37,0.44 C11.28,20.9,11.5,21,11.73,21h0.55c0.23,0,0.45-0.1,0.59-0.27l0.37-0.44c0.02-0.02,0.04-0.05,0.07-0.07l0.35-0.32 c0.13-0.11,0.21-0.27,0.23-0.43l0.38-2.33c-0.78,0.08-1.64,0.11-2.25,0.11C11.39,17.25,10.53,17.22,9.75,17.14z M21.98,20.94L2.86,1.87L1.45,3.28l6.82,6.8c0.64,2.54,0.77,4.69,0.74,5.38C9,15.66,9.06,15.84,9.19,15.98 l0.33,0.38c0.71,0.09,1.54,0.14,2.48,0.14s1.77-0.05,2.48-0.14l0.03-0.04l6.05,6.04L21.98,20.94z"/></svg>
